icons/2_Variations/Mapbox bg.var.svg

<svg width="1024" height="1024" fill="none" xmlns="http://www.w3.org/2000/svg"><g clip-path="url(#a)"><path d="M512 1024c282.77 0 512-229.23 512-512S794.77 0 512 0 0 229.23 0 512s229.23 512 512 512Z" fill="#728DBE"/><path d="M512 256c-141.39 0-256 114.61-256 256s114.61 256 256 256 256-114.61 256-256-114.61-256-256-256Zm121.52 318.78c-87.52 87.54-243.9 59.6-243.9 59.6S361.4 478.3 449.23 390.47c48.67-48.67 129.3-46.65 180.27 4s52.7 131.6 4 180.27l.02.04ZM541.37 406l-25.05 51.55-51.55 25.05 51.55 25.05 25.05 51.55 25.05-51.55L618 482.63l-51.55-25.05L541.37 406Z" fill="#fff"/></g><defs><clipPath id="a"><path fill="#fff" d="M0 0h1024v1024H0z"/></clipPath></defs></svg>

<svg width="1024" height="1024" viewBox="0 0 1024 1024" fill="none" xmlns="http://www.w3.org/2000/svg">
<g clip-path="url(#clip0_3_161)">
<path d="M512 1024C794.77 1024 1024 794.77 1024 512C1024 229.23 794.77 0 512 0C229.23 0 0 229.23 0 512C0 794.77 229.23 1024 512 1024Z" fill="#728DBE"/>
<path d="M512 256C370.61 256 256 370.61 256 512C256 653.39 370.61 768 512 768C653.39 768 768 653.39 768 512C768 370.61 653.39 256 512 256ZM633.52 574.78C546 662.32 389.62 634.38 389.62 634.38C389.62 634.38 361.4 478.3 449.23 390.47C497.9 341.8 578.53 343.82 629.5 394.47C680.47 445.12 682.2 526.07 633.5 574.74L633.52 574.78ZM541.37 406L516.32 457.55L464.77 482.6L516.32 507.65L541.37 559.2L566.42 507.65L618 482.63L566.45 457.58L541.37 406Z" fill="white"/>
</g>
<defs>
<clipPath id="clip0_3_161">
<rect width="1024" height="1024" fill="white"/>
</clipPath>
</defs>
</svg>
